X:524
T:Run Run Away
P:(old page 211)
M:4/4
L:1/8
N:Great Big Sea?
K:D
"D"D2 DE FA A2|"G"d2 d>A "D"BA A2|D2 DE FA A2|"G"F2 "A"E>D "D"D4:|
"D"d2-dA BA A2|FA A2 BA "D"A2|"G"d2 d>A "D"BA A2|"G"F2 "A"E>D "D"D4:||

%%newpage

